X:1
T:Fargo, 11.11.12.11.11.11
T:Fargo, 11.11.12.11.11.11
T:Hubert Platt Main, 1871
T:Public Domain Courtesy of the Cyber Hymnal™
C:Hubert Platt Main, 1871
Z:Public Domain
Z:Courtesy of the Cyber Hymnal™
%%score ( 1 2 ) ( 3 4 )
L:1/8
Q:1/4=108
M:6/8
K:D
V:1 treble 
V:2 treble 
V:3 bass 
V:4 bass 
V:1
 [FA]2 [DF] [Bd]2 [GB] | [FA]3 [DF]3 | [EG]2 [EG] ([GB][FA])[EG] | [DF]3- [DF]2 z | %4
 [FA]2 [DF] [Bd]2 [GB] | [FA]3 [DF]3 | [CE]2 [CA] [DB]2 [Ec] | [CA]3- [CA]2 z | %8
 [Ec]2 [Ec] [Fd]2 [Ge] | [Fd]2 [FA] [FA]3 | [FA]2 [GB] [FA]2 [EG] | [DF]3- [DF]2 z | %12
 [FA]2 [FA] ([DF][EG])[FA] | [GB]3 [Bd]3 | [FA]2 [FA] ([EG][DF])[CE] | D3- D2 z | %16
 [FA]2 [FA] ([FA][GB])[Ec] | [Fd]3 [FA]3 | ([FA][GB])[FA] ([EG][DF])[CE] | [DF]3- [DF]2 z | %20
 [FA]2 [FA] ([FA][GB])[Ec] | [Fd]3 [FA]3 | ([Af][Ge])[Fd] [Ed]2 [Gc] | [Fd]3- [Fd]2 |] %24
V:2
 x6 | x6 | x6 | x6 | x6 | x6 | x6 | x6 | x6 | x6 | x6 | x6 | x6 | x6 | x6 | D3- D2 x | x6 | x6 | %18
 x6 | x6 | x6 | x6 | x6 | x5 |] %24
V:3
 D,3 D,3 | D,3 D,3 | A,,3 A,,3 | D,3- D,2 z | D,3 D,3 | D,3 D,3 | E,3 E,3 | A,,3- A,,2 z | %8
 A,,3 A,,3 | D,3 D,3 | A,,3 A,,3 | D,3- D,2 z | D,3 D,3 | G,,3 G,,3 | A,,3 A,,3 | D,3- D,2 z | %16
 [D,D]2 [D,D] [D,D]2 [D,A,] | [D,A,]3 [D,D]3 | [D,D]2 [F,D] A,2 [A,,A,] | [D,A,]3- [D,A,]2 z | %20
 [D,D]2 [D,D] [D,D]2 [D,A,] | [D,A,]3 [D,D]3 | [D,D][E,A,][F,A,] [G,B,]2 A, | [D,A,]3- [D,A,]2 |] %24
V:4
 x6 | x6 | x6 | x6 | x6 | x6 | x6 | x6 | x6 | x6 | x6 | x6 | x6 | x6 | x6 | x6 | x6 | x6 | %18
 x3 A,2 x | x6 | x6 | x6 | x5 A, | x5 |] %24

